!!!COM: Bach, Johann Sebastian
!!!CDT: 1685/3/-1750/7/28
!!!OPR@@DE: Das wohltemperierte Klavier
!!!OPR@EN: The Well-Tempered Clavier
!!!OTL: The Well-Tempered Clavier, Book 2, Fugue 1 in C major
!!!SCT: BWV 870b
!!!parts: 3
!!!RNB: The texture increases to four voices in the final four measures.
**kern	**kern	**kern
*staff2	*staff1	*staff1
*clefF4	*clefG2	*clefG2
*k[]	*k[]	*k[]
*M2/4	*M2/4	*M2/4
*C:	*C:	*C:
*MM102	*MM102	*MM102
=1	=1	=1
2r	8r	2r
.	16gL	.
.	16fJ	.
.	8gL	.
.	8cJ	.
=2	=2	=2
2r	4a	2r
.	4g	.
=3	=3	=3
2r	8r	2r
.	16fL	.
.	16eJ	.
.	16fL	.
.	16g	.
.	16e	.
.	16fJ	.
=4	=4	=4
2r	16dL	2r
.	16f	.
.	16e	.
.	16fJ	.
.	16gL	.
.	16a	.
.	16f	.
.	16gJ	.
=5	=5	=5
2r	16eL	8r
.	16d	.
.	16e	16ccL
.	16fJ	16bJ
.	16eL	8ccL
.	16f	.
.	16d	8gJ
.	16eJ	.
=6	=6	=6
2r	16cL	4ee
.	16B	.
.	16c	.
.	16dJ	.
.	16cL	4dd
.	16d	.
.	16B	.
.	16cJ	.
=7	=7	=7
2r	16AL	8r
.	16B	.
.	16c	16ccL
.	16dJ	16bJ
.	16eL	16ccL
.	16f#	16dd
.	[8gJ	16b
.	.	16ccJ
=8	=8	=8
2r	8g]L	16aL
.	.	16cc
.	16f#	16b
.	16eJ	16ccJ
.	4f#	16ddL
.	.	16ee
.	.	16cc
.	.	16ddJ
=9	=9	=9
8r	[2g	16bL
.	.	16a
16GL	.	16b
16FJ	.	16ccJ
8GL	.	16bL
.	.	16cc
8CJ	.	16a
.	.	16bJ
=10	=10	=10
4A	16g]L	8.ccL
.	16e	.
.	[8fJ	.
.	.	16aJ
4G	16f]L	8.b-L
.	16d	.
.	[8eJ	.
.	.	16gJ
=11	=11	=11
8r	8e]L	4a
16FL	8dJ	.
16EJ	.	.
16FL	4g	8bnL
16G	.	.
16E	.	[8ccJ
16FJ	.	.
=12	=12	=12
16DL	16fL	8cc]
16F	16a	.
16E	16g	4cc
16FJ	16aJ	.
16GL	4d	.
16A	.	.
16F	.	8b
16GJ	.	.
=13	=13	=13
16EL	8c	8ccL
16D	.	.
16E	8r	16gg
16FJ	.	16ffJ
16EL	4r	8ggL
16F	.	.
16D	.	8ccJ
16EJ	.	.
=14	=14	=14
16FL	8r	4aa
16E	.	.
16F	16ccL	.
16GJ	16bJ	.
16FL	8ccL	4gg
16G	.	.
16E	8gJ	.
16FJ	.	.
=15	=15	=15
16DL	4dd	8ff#L
16C#	.	.
16D	.	16aa
16EJ	.	16ggJ
16F#L	4cc	8aaL
16G	.	.
16E	.	8ddJ
16F#J	.	.
=16	=16	=16
16GL	8bL	4bb
16F#	.	.
16G	16dd	.
16AJ	16ccJ	.
16GL	8ddL	4aa
16A	.	.
16Fn	8aJ	.
16GJ	.	.
=17	=17	=17
16EL	4ee	8gg#L
16D	.	.
16E	.	16bb
16F#J	.	16aaJ
16G#L	4dd	8bbL
16A	.	.
16F#	.	8eeJ
16G#J	.	.
=18	=18	=18
16AL	8ccL	[2ccc
16G#	.	.
16A	16ee	.
16BJ	16ddJ	.
16AL	8eeL	.
16B	.	.
16Gn	8aaJ	.
16AJ	.	.
=19	=19	=19
16F#L	[2dd	8ccc]L
16G	.	.
16E	.	8cccJ
16F#J	.	.
16GL	.	8bbL
16A	.	.
16B	.	8ggJ
16GJ	.	.
=20	=20	=20
16cL	8dd]L	4ee
16B	.	.
16c	16cc	.
16dJ	16bJ	.
16cL	8aL	8ff#L
16d	.	.
16B	[8bJ	[8ggJ
16cJ	.	.
=21	=21	=21
2d	8b]L	8gg]L
.	16a	16ff#
.	16gJ	16eeJ
.	8aL	8.ff#L
.	8dJ	.
.	.	16ggJ
*clefG2	*	*
=22	=22	=22
8GL	4b	8ggL
16g	.	8eeJ
16fnJ	.	.
16gL	4a	8cc#L
16a	.	.
16f	.	[8ddJ
16gJ	.	.
=23	=23	=23
2e	8r	16dd]L
.	.	16gg
.	16gL	16bb-
.	16fJ	16aaJ
.	16gL	16ggL
.	16a	16ff
.	16f	16ee
.	16gJ	16ddJ
*clefF4	*	*
=24	=24	=24
8r	16eL	8cc#
.	16g	.
8d	16f	4dd
.	16gJ	.
8FL	16aL	.
.	16b-	.
8AJ	16g	8cc#
.	16aJ	.
=25	=25	=25
8D	16fL	8r
.	16e	.
8r	16f	16ddL
.	16gJ	16cc#J
4r	16fL	8ddL
.	16g	.
.	16e	8aJ
.	16fJ	.
=26	=26	=26
2r	16dL	4ff
.	16c	.
.	16d	.
.	16eJ	.
.	16dL	4ee
.	16e	.
.	16c	.
.	16dJ	.
=27	=27	=27
2r	16BL	8r
.	16c	.
.	16d	16ddL
.	16eJ	16ccJ
.	16f#L	16ddL
.	16g#	16ee
.	[8aJ	16cc
.	.	16ddJ
=28	=28	=28
2r	8a]L	16bL
.	.	16dd
.	16g#	16cc
.	16f#J	16ddJ
.	4g#	16eeL
.	.	16ffn
.	.	16dd
.	.	16eeJ
=29	=29	=29
2r	16aL	8ccL
.	16g#	.
.	16a	16ee
.	16bJ	16ddJ
.	16aL	8eeL
.	16b	.
.	16gn	8ccJ
.	16aJ	.
=30	=30	=30
2r	16f#L	8aaL
.	16e	.
.	16f#	8ccJ
.	16gJ	.
.	16f#L	8aL
.	16g	.
.	16e	8ddJ
.	16f#J	.
=31	=31	=31
2r	16gL	8bL
.	16f#	.
.	16g	16dd
.	16aJ	16ccJ
.	16gL	8ddL
.	16a	.
.	16fn	8bJ
.	16gJ	.
=32	=32	=32
2r	16eL	8ggL
.	16d	.
.	16e	8b-J
.	16fJ	.
.	16eL	8gL
.	16f	.
.	16d	8ccJ
.	16eJ	.
=33	=33	=33
2r	16fL	8aL
.	16e	.
.	16f	16dd
.	16gJ	16ccJ
.	16fL	16ddL
.	16g	16ee
.	16e	16cc
.	16fJ	16ddJ
=34	=34	=34
2r	8dL	16bL
.	.	16a
.	16g	16b
.	16fJ	16ccJ
.	16gL	16bL
.	16a	16cc
.	16f	16a
.	16gJ	16bJ
=35	=35	=35
2r	16eL	8gL
.	16d	.
.	16e	16cc
.	16fJ	16bJ
.	16eL	16ccL
.	16f	16dd
.	16d	16b-
.	16eJ	16ccJ
=36	=36	=36
2r	8cL	16aL
.	.	16g
.	16f	16a
.	16eJ	16b-J
.	16fL	16aL
.	16g	16b-
.	16e	16g
.	16fJ	16aJ
=37	=37	=37
2r	16dL	[2fT
.	16c	.
.	16d	.
.	16eJ	.
.	16dL	.
.	16e	.
.	16c	.
.	16dJ	.
=38	=38	=38
2r	16BL	8f]L
.	16A	.
.	16B	16dd
.	16cJ	16ccJ
.	16BL	8ddL
.	16c	.
.	16A	8fJ
.	16BJ	.
=39	=39	=39
8r	4.c	16eL
.	.	16d
16CL	.	16e
16BBJ	.	16fJ
8CL	.	16eL
.	.	16f
*	*clefF4	*
8GGJ	[8B	16d
.	.	16eJ
=40	=40	=40
4E	16B]L	8.cL
.	16B	.
.	[8AJ	.
.	.	16cJ
4D	16A]L	8.BL
.	16A	.
.	[8GJ	.
.	.	16BJ
=41	=41	=41
8r	8G]L	4.A
16CL	8GJ	.
16BBJ	.	.
16CL	8F#L	.
16D	.	.
16BB	[8GJ	8B
16CJ	.	.
=42	=42	=42
16AAL	16G]L	4.c
16C	16F#	.
16BB	16G	.
16CJ	16EJ	.
16DL	[4F#	.
16E	.	.
16C	.	8A
16DJ	.	.
=43	=43	=43
16BBL	8F#]L	4.d
16D	.	.
16C	8BJ	.
16DJ	.	.
16EL	[4G	.
16Fn	.	.
16D	.	8B
16EJ	.	.
=44	=44	=44
16CL	8G]L	4.e
16E	.	.
16D	8cJ	.
16EJ	.	.
16FL	[4A	.
16G	.	.
16E	.	8c
16FJ	.	.
=45	=45	=45
16DL	8A]L	4.f
16F	.	.
16E	8dJ	.
16FJ	.	.
16GL	[4B	.
16A	.	.
16F	.	8d
16GJ	.	.
=46	=46	=46
16EL	8B]L<	4g
16D	.	.
*	*clefG2	*
16E	8BJ	.
16FJ	.	.
16EL	8cL	8aL
16F	.	.
16D	8dJ	8bJ
16EJ	.	.
=47	=47	=47
16CL	8eL	[2cc
16D	.	.
16E	16g	.
16DJ	16fJ	.
16CL	8gL	.
16BB-	.	.
16AA	8cJ	.
16GGJ	.	.
=48	=48	=48
16FFL	4a	2cc_
16EE	.	.
16FF	.	.
16GGJ	.	.
16FFL	4g	.
16GG	.	.
16EE	.	.
16FFJ	.	.
=49	=49	=49
16DDL	8r	2cc]
16AA	.	.
16BB	16fL	.
16CJ	16eJ	.
16DL	16fL	.
16E	16g	.
16F	16e	.
16DJ	16fJ	.
=50	=50	=50
[2G	16dL	4cc
.	16f	.
.	16e	.
.	16fJ	.
.	16gL	4b
.	16a	.
.	16f	.
.	16gJ	.
=51	=51	=51
2G_	16eL	8r
.	16d	.
.	16e	16ccL
.	16fJ	16bJ
.	16eL	8ccL
.	16f	.
.	16d	8gJ
.	16eJ	.
=52	=52	=52
2G]	16cL	4ee
.	16B	.
.	16c	.
.	16dJ	.
.	16cL	4dd
.	16d	.
.	16B	.
.	16cJ	.
=53	=53	=53
4r	16AL	8r
.	16B	.
.	16c	16ccL
.	16dJ	16bJ
8r	16eL	16ccL
.	16f#	16dd
8B	[8gJ	16b
.	.	16ccJ
=54	=54	=54
8cL	8g]	16aL
.	.	16cc
8AJ	4g	16b
.	.	16ccJ
8dL	.	16ddL
.	.	16ee
8DJ	8f#	16cc
.	.	16ddJ
=55	=55	=55
16GGL	4g	8bL
16FF#	.	.
16GG	.	16dd
16AAJ	.	16ccJ
16BBL	4r	8ddL
16C	.	.
16AA	.	8gJ
16BBJ	.	.
=56	=56	=56
16CL	8r	4ee
16BB	.	.
16C	16gL	.
16DJ	16fJ	.
16CL	8gL	4dd
16D	.	.
16BB	8dJ	.
16CJ	.	.
=57	=57	=57
16AAL	4a	8ccL
16GG#	.	.
16AA	.	16ee
16BBJ	.	16ddJ
16CL	4g	8eeL
16D	.	.
16BB	.	8aJ
16CJ	.	.
=58	=58	=58
16DL	8fL	4ff
16C	.	.
16D	16a	.
16EJ	16gJ	.
16DL	8aL	4ee
16E	.	.
16C	8eJ	.
16DJ	.	.
=59	=59	=59
16BBL	4b	8ddL
16AA	.	.
16BB	.	16ff
16CJ	.	16eeJ
16DL	4a	8ffL
16E	.	.
16C	.	8bJ
16DJ	.	.
=60	=60	=60
16EL	8gL	4gg
16D	.	.
16E	16b	.
16FJ	16aJ	.
16EL	8bL	4ff
16F	.	.
16D	8gJ	.
16EJ	.	.
=61	=61	=61
16CL	4cc	8eeL
16BB	.	.
16C	.	8ffJ
16DJ	.	.
16EL	4b-	[4gg
16F	.	.
16D	.	.
16EJ	.	.
=62	=62	=62
16FL	2a	4gg]
16G	.	.
16F	.	.
16EJ	.	.
16DL	.	[4ff
16C	.	.
16BB	.	.
16AAJ	.	.
=63	=63	=63
16BBL	2g	4ff]
16GG	.	.
16AA	.	.
16BBJ	.	.
16CL	.	[4ee
16D	.	.
16BB	.	.
16CJ	.	.
=64	=64	=64
16AAL	[2f	4ee]
16C	.	.
16BB	.	.
16CJ	.	.
16DL	.	8ddL
16E	.	.
16F	.	8ccJ
16DJ	.	.
=65	=65	=65
16GL	4f]	8bL
16A	.	.
16F	.	8bJ
16GJ	.	.
16AL	4e	[4cc
16B	.	.
16G	.	.
16AJ	.	.
=66	=66	=66
16FL	[4d	4cc]
16G	.	.
16E	.	.
16FJ	.	.
16GL	16d]L	4b
16A	16f	.
16F	16e	.
16GJ	16dJ	.
=67	=67	=67
8EL	16gL	8ccL
.	16a	.
8FJ	16f	8ddJ
.	16gJ	.
8GL	8eL	16gL
.	.	8cc
8G#J	8dJ	.
.	.	16bJ
=68	=68	=68
8AAL	[2c	16ccL
.	.	16f
16Gn	.	16e
16FJ	.	16dJ
8GL	.	16eL
.	.	16f
8CJ	.	16d
.	.	16eJ
=69	=69	=69
4A	2c_	16fL
.	.	16e
.	.	16f
.	.	16gJ
4G	.	16fL
.	.	16g
.	.	16e
.	.	16fJ
=70	=70	=70
8r	2c_	16dL
.	.	16c
16FL	.	16d
16EJ	.	16eJ
8FL	.	16dL
.	.	16e
8DJ	.	16c
.	.	16dJ
=71	=71	=71
4G	8c]	16eL
.	.	16d
.	4c	16e
.	.	16fJ
4F	.	16eL
.	.	16f
*	*clefF4	*
.	8B	16d
.	.	16eJ
=72	=72	=72
16EL	8cL	[2c
16D	.	.
16E	16G	.
16FJ	16FJ	.
16EL	8GL	.
16F	.	.
16D	8CJ	.
16EJ	.	.
=73	=73	=73
16FL	4A	2c_
16E	.	.
16F	.	.
16GJ	.	.
16FL	4G	.
16G	.	.
16E	.	.
16FJ	.	.
=74	=74	=74
16DL	8r	2c_
16C	.	.
16D	16FL	.
16EJ	16EJ	.
16DL	8FL	.
16C	.	.
16BB	8DJ	.
16AAJ	.	.
=75	=75	=75
16GGL	4G	8c]L
16FF	.	.
16GG	.	8BJ
16AAJ	.	.
16GGL	8AL	8cL
16FF	.	.
16EE	8BJ	8dJ
16DDJ	.	.
=76	=76	=76
16CCL	8cL	8eL
16C	.	.
16E	16B-	16g
16CJ	16AJ	16fJ
16CCL	8B-L	8gL
16C	.	.
16G	8cJ	8eJ
16CJ	.	.
=77	=77	=77
16CCL	4f	4a
16DD	.	.
16EE	.	.
16FFJ	.	.
16GGL	4e	4g
16AA	.	.
16BB	.	.
16CJ	.	.
=78	=78	=78
16CCL	2r	8r
16C	.	.
16D	.	16fL
16CJ	.	16eJ
16CCL	.	8fL
16C	.	.
16F	.	8dJ
16CJ	.	.
=79	=79	=79
16BBL	8r	4g
16C	.	.
16BB	16dL	.
16AAJ	16cJ	.
16GGL	8dL	4f
16FF	.	.
16EE	8GJ	.
16DDJ	.	.
*	*^	*
!! Four voice material continues to the end:
=80	=80	=80	=80
16CCL	8cL	8r	8eL
16C	.	.	.
16D	8fJ	8B	8a-J
16CJ	.	.	.
16EL	8eL	8cL	8gL
16C	.	.	.
16F	8a-J	8dJ	8bJ
16CJ	.	.	.
=81	=81	=81	=81
16GL	8gL	8eL	8ccL
16C	.	.	.
16A-	8dJ	8BJ	8fJ
16CJ	.	.	.
16GL	8cL	8cL	8eL
16C	.	.	.
16BB	8eJ	8eJ	8ccJ
16CJ	.	.	.
=82	=82	=82	=82
8FF	8d	8An	8dL
8r	8r	8r	8ccJ
8GG	8d	8G	8fL
8r	8r	8r	8bJ
=83	=83	=83	=83
2CC	2g 2e	2c	2cc
*	*v	*v	*
==	==	==
*-	*-	*-
!!!RDF**kern: > = above
!!!RDF**kern: < = below
!!!OTA: Das wohltemperirte Clavier
!!!OCY: Deutschland
!!!PPP: Leipzig
!!!ODT: 1738//-1742//
!!!PDT: 1739//-1742//
!!!AFR: fuga; fugue
!!!AST: polyphony
!!!AMT: simple duple
!!!SCA: Bach-Werke-Verzeichnis
!!!YOR: Bach-Gesellschaft Ausgabe, Band 14
!!!YOO: Breitkopf und Härtel
!!!YOY: 1866
!!!YOE: Franz Kroll (1820-1877)
!!!AIN: cemba; clavi
!!!YEC: Copyright 1994, David Huron
!!!YEM: Rights to all derivative electronic formats reserved.
!!!ENC: David Huron
!!!END: 1986/11/25
!!!EED: David Huron
!!!YER: 1994/08/10
!!!EED2: Craig Stuart Sapp (notational niceties)
!!!EEV: 2020/10/05
!!!EFL: 25/48
